public/assets/tuta.svg

<svg xmlns="http://www.w3.org/2000/svg" width="1408" height="309" fill="none" viewBox="0 0 1408 309" aria-label="TutaMailWithName"><g fill="#850122" clip-path="url(#clip0_6063_156)"><path d="M305.76 89.504h-40.931c-.511 0-.964.17-1.362.567l-101.731 98.552c-.965.908-2.611.625-3.122-.624l-29.577-97.417c-.284-.738-.965-1.192-1.76-1.192H85.381c-.852 0-1.59.568-1.874 1.363l-65.909 215.44c-.397 1.249.568 2.441 1.874 2.441h42.974c.852 0 1.59-.568 1.873-1.363l41.726-136.246c.568-1.703 2.896-1.874 3.634-.171l28.498 65.228c.284.682.965 1.193 1.76 1.193h23.219c.51 0 .965-.171 1.362-.568l68.748-67.442c1.419-1.42 3.747.057 3.179 1.93l-41.328 135.054a1.914 1.914 0 0 0 1.873 2.441h43.031c.852 0 1.59-.567 1.874-1.362l65.908-215.383a1.914 1.914 0 0 0-1.872-2.441zM52.91 75.482 3.18 25.979c-.625-.568-1.363-.511-1.42-.511-.965 0-1.76.795-1.76 1.76v217.654c0 .965.795 1.76 1.76 1.76.738 0 1.42-.511 1.646-1.193.057-.056.057-.17.114-.283 0-.057.113-.511.113-.568L53.817 80.023c.625-1.76.625-3.008-.908-4.541M24.522 4.35l52.341 52.965c1.25 1.25 2.442 1.533 4.315 1.533h224.807c1.532 0 2.384-1.987.908-3.406L254.949 2.873C252.678.66 252.508 1 250.01 1H25.714c-.965 0-1.76.795-1.76 1.76 0 .057-.056.851.625 1.533-.057 0-.057-.057 0 0zM753.384 179.767c0-27.079 20.38-59.381 55.123-59.381h25.547l-9.14 29.52c-10.673 35.368-27.704 57.224-48.425 57.224-14.93 0-23.162-10.446-23.162-27.363zm-130.002-14.76c-12.773 41.555 6.699 70.167 50.866 70.167 6.415 0 14.93-.624 17.371-1.249 1.192-.284 1.817-.908 2.441-2.441l7.607-25.83c.284-1.533 0-2.782-2.157-2.441-6.699.624-12.773 1.249-18.28 1.249-22.197 0-31.336-11.979-24.638-33.551l15.498-50.468h45.075c1.192 0 2.158-.624 2.725-2.157l7.891-26.171c.284-1.533-.284-2.441-2.157-2.441h-44.167l5.791-19.075c.284-1.249 0-2.157-.909-3.065l-23.445-21.516c-1.192-1.249-2.725-.908-3.35.908l-36.219 118.138zm-155.264.908c-13.114 42.18 7.891 69.827 40.817 69.827 18.904 0 33.778-9.254 44.45-24.298l-.283 19.359c0 1.873.908 2.441 2.441 2.441h21.004c1.533 0 2.158-.625 2.725-2.157l42.294-138.745c.624-1.873-.284-2.782-1.817-2.782h-30.145c-1.532 0-2.441.625-2.725 2.158L568.94 150.19c-11.24 36.333-28.895 56.94-47.516 56.94s-26.511-14.76-19.472-37.525l23.73-77.206c.624-1.874-.284-2.782-1.817-2.782h-30.144c-1.533 0-2.157.625-2.725 2.157l-22.821 74.141zm-102.583-.908c-12.773 41.555 6.699 70.167 50.866 70.167 6.415 0 14.93-.624 17.371-1.249 1.192-.284 1.817-.908 2.441-2.441l7.607-25.83c.284-1.533 0-2.782-2.157-2.441-6.699.624-12.773 1.249-18.28 1.249-22.196 0-31.336-11.979-24.638-33.551l15.499-50.468h45.075c1.192 0 2.441-.624 2.724-2.157l7.891-26.171c.284-1.533-.283-2.441-2.157-2.441h-44.45l5.79-19.075c.284-1.249 0-2.157-.908-3.065l-23.446-21.516c-1.192-1.249-2.725-.908-3.349.908l-35.935 118.138zm400.055 70.792c17.655 0 32.245-8.005 43.258-24.298v19.359c0 1.532.908 2.441 2.441 2.441h21.005c1.532 0 2.157-.625 2.725-2.158l42.634-139.085c.283-1.533-.284-2.782-1.817-2.782h-66.364c-64.83 0-90.093 56.94-90.093 93.84 0 32.302 19.813 52.626 46.267 52.626zM953.936 233.068h-25.464c-1 0-1.824-.823-1.824-1.823V91.159c0-1 .824-1.823 1.824-1.823h20.113a1.86 1.86 0 0 1 1.646 1l4.352 8.88c.588 1.176 2.059 1.353 2.941.412 3.234-3.411 6.94-6.352 11.115-8.998 4.999-3.117 11.115-4.646 18.29-4.646 2.823 0 5.94.353 9.469 1.058s7.112 1.882 10.822 3.588c3.7 1.705 7.23 3.999 10.64 6.88 2.71 2.294 5.12 5.176 7.18 8.587.7 1.176 2.35 1.235 3.11 0 3.36-5.117 7.94-9.586 13.88-13.409 6.88-4.528 14.29-6.763 22.06-6.763 5.17 0 10.7.764 16.52 2.411 5.77 1.588 11.24 4.587 16.18 8.998 4.99 4.411 9.11 10.527 12.29 18.29 3.17 7.763 4.82 17.878 4.82 30.287v85.217a1.83 1.83 0 0 1-1.82 1.823h-23.65c-1 0-1.82-.824-1.82-1.823v-85.511c0-12.409-2.59-21.054-7.64-25.935-5.12-4.881-11.82-7.351-20.23-7.351-6.41 0-12 2.705-16.82 8.116-4.83 5.41-7.24 13.938-7.24 25.523v85.216c0 1-.82 1.824-1.82 1.824h-23.64c-1 0-1.83-.824-1.83-1.824v-85.51c0-12.409-2.58-21.054-7.64-25.935-5.117-4.881-11.821-7.351-20.231-7.351-5.999 0-11.233 2.293-15.761 6.939-4.529 4.587-7.175 11.821-7.94 21.584v90.332c0 1-.823 1.823-1.823 1.823zM1284.39 91.16v140.086a1.83 1.83 0 0 1-1.82 1.823h-21.41c-.82 0-1.53-.53-1.76-1.353l-3.18-11.762c-.41-1.412-2.18-1.764-3.18-.647-4.64 5.293-10.29 9.351-16.99 12.291-7.82 3.411-15.7 5.117-23.7 5.117q-15 0-28.05-5.822c-8.71-3.882-16.29-9.234-22.82-16.056s-11.65-14.82-15.47-23.994c-3.82-9.233-5.7-18.996-5.7-29.405s1.88-20.172 5.7-29.406 8.94-17.231 15.47-23.994 14.11-12.174 22.82-16.055q13.05-5.823 28.05-5.823c8 0 15.7 1.53 23.11 4.646q9.705 4.059 17.64 12.174c1 1 2.65.647 3.06-.706l3.24-11.526c.23-.765.94-1.353 1.76-1.353h21.41c1 0 1.82.823 1.82 1.823zm-72.04 119.737c5.76 0 11.29-1.294 16.52-3.881 5.18-2.588 9.71-6.175 13.53-10.645 3.76-4.47 6.76-9.763 9-15.761 2.17-5.999 3.29-12.409 3.29-19.231s-1.12-13.174-3.29-19.231c-2.18-5.999-5.18-11.233-9-15.761-3.82-4.47-8.29-8.057-13.53-10.645-5.23-2.588-10.7-3.881-16.52-3.881s-11.29 1.293-16.53 3.881c-5.23 2.588-9.7 6.175-13.52 10.645-3.83 4.528-6.83 9.762-9 15.761-2.18 5.998-3.3 12.409-3.3 19.231s1.12 13.232 3.3 19.231c2.17 5.998 5.17 11.233 9 15.761 3.76 4.528 8.29 8.057 13.52 10.645 5.24 2.587 10.71 3.881 16.53 3.881M1329.67 58.108c-5.76 0-10.52-2.235-14.34-6.764-2.42-2.881-3.95-6.586-4.18-10.35-.47-5.999 1.35-10.939 5.35-14.938 3.59-3.587 8-5.41 13.23-5.41 5.24 0 9.59 1.823 13.24 5.41 4 4 5.76 8.998 5.35 14.938-.3 3.764-1.77 7.469-4.18 10.35-3.82 4.529-8.58 6.764-14.35 6.764zm13.18 174.961h-25.76c-1 0-1.82-.824-1.82-1.824V91.159c0-1 .82-1.823 1.82-1.823h25.46c1 0 1.83.823 1.83 1.823l.29 140.086c0 1-.82 1.824-1.82 1.824M1407.72 15.823v215.422c0 1-.83 1.824-1.83 1.824h-25.46c-1 0-1.83-.824-1.83-1.824V15.823c0-1 .83-1.823 1.83-1.823h25.46c1 0 1.83.823 1.83 1.823"></path></g><defs><clipPath id="clip0_6063_156"><path fill="#fff" d="M0 0h1408v309H0z"></path></clipPath></defs></svg>

<?xml version="1.0" encoding="utf-8"?>
<svg xmlns="http://www.w3.org/2000/svg" viewBox="14.1835 9.7619 205.463 205.3509" width="205.463px" height="205.3509px">
  <path d="M 305.76 89.504 L 264.829 89.504 C 264.318 89.504 263.865 89.674 263.467 90.071 L 161.736 188.623 C 160.771 189.531 159.125 189.248 158.614 187.999 L 129.037 90.582 C 128.753 89.844 128.072 89.39 127.277 89.39 L 85.381 89.39 C 84.529 89.39 83.791 89.958 83.507 90.753 L 17.598 306.193 C 17.201 307.442 18.166 308.634 19.472 308.634 L 62.446 308.634 C 63.298 308.634 64.036 308.066 64.319 307.271 L 106.045 171.025 C 106.613 169.322 108.941 169.151 109.679 170.854 L 138.177 236.082 C 138.461 236.764 139.142 237.275 139.937 237.275 L 163.156 237.275 C 163.666 237.275 164.121 237.104 164.518 236.707 L 233.266 169.265 C 234.685 167.845 237.013 169.322 236.445 171.195 L 195.117 306.249 C 194.95 306.832 195.069 307.46 195.438 307.941 C 195.808 308.423 196.383 308.7 196.99 308.69 L 240.021 308.69 C 240.873 308.69 241.611 308.123 241.895 307.328 L 307.803 91.945 C 307.97 91.3619 307.851 90.7342 307.482 90.2529 C 307.113 89.7717 306.537 89.4938 305.931 89.504 L 305.76 89.504 Z" transform="matrix(0.6673539876937866, 0, 0, 0.6673539876937866, 14.18346118927002, 9.107123374938965)" fill="#850122"/>
  <path d="M 24.522 4.35 L 76.863 57.315 C 78.113 58.565 79.305 58.848 81.178 58.848 L 305.985 58.848 C 307.517 58.848 308.369 56.861 306.893 55.442 L 254.949 2.873 C 252.678 0.66 252.508 1 250.01 1 L 25.714 1 C 24.749 1 23.954 1.795 23.954 2.76 C 23.954 2.817 23.898 3.611 24.579 4.293 C 24.522 4.293 24.522 4.236 24.579 4.293 L 24.522 4.35 Z" transform="matrix(0.6673539876937866, 0, 0, 0.6673539876937866, 14.18346118927002, 9.107123374938965)" fill="#850122"/>
  <path d="M 52.91 75.482 L 3.18 25.979 C 2.555 25.411 1.817 25.468 1.76 25.468 C 0.795 25.468 0 26.263 0 27.228 L 0 244.882 C 0 245.847 0.795 246.642 1.76 246.642 C 2.498 246.642 3.18 246.131 3.406 245.449 C 3.463 245.393 3.463 245.279 3.52 245.166 C 3.52 245.109 3.633 244.655 3.633 244.598 L 53.817 80.023 C 54.442 78.263 54.442 77.015 52.909 75.482" transform="matrix(0.6673539876937866, 0, 0, 0.6673539876937866, 14.18346118927002, 9.107123374938965)" fill="#850122"/>
</svg>
